Sweet-Rainbow/icons/kontact-import-wizard.svg

<?xml version="1.0" encoding="UTF-8" standalone="no"?>
<!-- Generator: Gravit.io -->

<svg
   xmlns:dc="http://purl.org/dc/elements/1.1/"
   xmlns:cc="http://creativecommons.org/ns#"
   xmlns:rdf="http://www.w3.org/1999/02/22-rdf-syntax-ns#"
   xmlns:svg="http://www.w3.org/2000/svg"
   xmlns="http://www.w3.org/2000/svg"
   xmlns:sodipodi="http://sodipodi.sourceforge.net/DTD/sodipodi-0.dtd"
   xmlns:inkscape="http://www.inkscape.org/namespaces/inkscape"
   style="isolation:isolate"
   viewBox="0 0 36 36"
   width="48"
   height="48"
   version="1.1"
   id="svg9"
   sodipodi:docname="kontact-import-wizard.svg"
   inkscape:version="0.92.4 (5da689c313, 2019-01-14)">
  <metadata
     id="metadata15">
    <rdf:RDF>
      <cc:Work
         rdf:about="">
        <dc:format>image/svg+xml</dc:format>
        <dc:type
           rdf:resource="http://purl.org/dc/dcmitype/StillImage" />
        <dc:title></dc:title>
      </cc:Work>
    </rdf:RDF>
  </metadata>
  <defs
     id="defs13" />
  <sodipodi:namedview
     pagecolor="#ffffff"
     bordercolor="#666666"
     borderopacity="1"
     objecttolerance="10"
     gridtolerance="10"
     guidetolerance="10"
     inkscape:pageopacity="0"
     inkscape:pageshadow="2"
     inkscape:window-width="640"
     inkscape:window-height="480"
     id="namedview11"
     showgrid="false"
     inkscape:zoom="29.365243"
     inkscape:cx="25.325443"
     inkscape:cy="32"
     inkscape:current-layer="svg9"
     units="px" />
  <linearGradient
     id="_lgradient_28"
     x1="0.21875"
     y1="0.17506042"
     x2="1.0989902"
     y2="1.1181589"
     gradientTransform="matrix(44,0,0,45.475,2,0.525)"
     gradientUnits="userSpaceOnUse">
    <stop
       offset="0%"
       stop-opacity="1"
       style="stop-color:rgb(252,203,144)"
       id="stop2" />
    <stop
       offset="83.91304347826087%"
       stop-opacity="1"
       style="stop-color:rgb(213,126,235)"
       id="stop4" />
  </linearGradient>
  <g
     id="g826"
     transform="matrix(0.79164811,0,0,0.79164811,-0.99955464,-0.41581311)">
    <path
       id="path7"
       d="m 42,26 v 0 c 0,-1.104 0.896,-2 2,-2 v 0 c 1.104,0 2,0.896 2,2 v 0 15 c 0,2.76 -2.24,5 -5,5 H 7 C 4.24,46 2,43.76 2,41 v -15 0 c 0,-1.104 0.896,-2 2,-2 v 0 c 1.104,0 2,0.896 2,2 v 0 13 c 0,1.656 1.344,3 3,3 h 30 c 1.656,0 3,-1.344 3,-3 z m -7,-9.945 6,-0.085 c 0.552,0 1,0.396 1,0.883 V 17.7 c 0,0.488 -0.339,1.142 -0.756,1.461 L 26.267,30.618 c -1.251,0.957 -3.283,0.957 -4.534,0 L 6.756,19.161 C 6.339,18.842 6,18.188 6,17.7 V 16.853 C 6,16.366 6.448,15.97 7,15.97 h 6 c 1.104,0 2,-0.791 2,-1.765 v 0 C 15,13.231 14.104,12.44 13,12.44 H 4 c -1.104,0 -2,0.791 -2,1.765 v 4.449 c 0,0.974 0.687,2.272 1.534,2.897 l 16.631,12.277 c 2.116,1.563 5.554,1.563 7.67,0 L 44.466,21.551 C 45.313,20.926 46,19.628 46,18.654 V 14.205 C 46,13.231 45.104,12.44 44,12.44 h -9 c -1.104,0 -2,0.816 -2,1.822 v 0 c 0,1.005 0.896,1.809 2,1.793 z m -9.884,5.184 v 0 c 0,0.616 0.499,1.116 1.115,1.116 v 0 c 0.616,0 1.116,-0.5 1.116,-1.116 v 0 -0.949 0 c 0,-0.616 -0.5,-1.116 -1.116,-1.116 v 0 c -0.616,0 -1.115,0.5 -1.115,1.116 v 0 z m 0,-5.155 v 0 c 0,0.615 0.499,1.115 1.115,1.115 v 0 c 0.616,0 1.116,-0.5 1.116,-1.115 v 0 -4.835 h 3.808 c 2.052,0 2.618,-1.251 1.262,-2.792 L 26.456,1.681 c -1.355,-1.541 -3.557,-1.541 -4.912,0 l -5.961,6.776 c -1.356,1.541 -0.79,2.792 1.262,2.792 h 3.808 v 9.99 0 c 0,0.616 0.5,1.116 1.116,1.116 v 0 c 0.616,0 1.115,-0.5 1.115,-1.116 v 0 -12.221 h -3.629 c -0.41,0 -0.538,-0.262 -0.284,-0.584 L 23.54,2.627 c 0.254,-0.323 0.666,-0.323 0.92,0 l 4.569,5.807 c 0.254,0.322 0.126,0.584 -0.284,0.584 h -3.629 z"
       style="fill:url(#_lgradient_28);fill-rule:evenodd"
       inkscape:connector-curvature="0" />
  </g>
</svg>

<?xml version="1.0" encoding="UTF-8" standalone="no"?><!-- Generator: Gravit.io --><svg xmlns="http://www.w3.org/2000/svg" xmlns:xlink="http://www.w3.org/1999/xlink" style="isolation:isolate" viewBox="0 0 48 48" width="48pt" height="48pt"><linearGradient id="_lgradient_28" x1="0.21874999649848828" y1="0.17506041551987891" x2="1.098990208503709" y2="1.1181589937900303" gradientTransform="matrix(44,0,0,45.475,2,0.525)" gradientUnits="userSpaceOnUse"><stop offset="0%" stop-opacity="1" style="stop-color:rgb(252,203,144)"/><stop offset="83.91304347826087%" stop-opacity="1" style="stop-color:rgb(213,126,235)"/></linearGradient><path d=" M 42 26 L 42 26 C 42 24.896 42.896 24 44 24 L 44 24 C 45.104 24 46 24.896 46 26 L 46 26 L 46 41 C 46 43.76 43.76 46 41 46 L 7 46 C 4.24 46 2 43.76 2 41 L 2 26 L 2 26 C 2 24.896 2.896 24 4 24 L 4 24 C 5.104 24 6 24.896 6 26 L 6 26 L 6 39 C 6 40.656 7.344 42 9 42 L 39 42 C 40.656 42 42 40.656 42 39 L 42 26 L 42 26 L 42 26 Z  M 35 16.055 L 41 15.97 C 41.552 15.97 42 16.366 42 16.853 L 42 17.7 C 42 18.188 41.661 18.842 41.244 19.161 L 26.267 30.618 C 25.016 31.575 22.984 31.575 21.733 30.618 L 6.756 19.161 C 6.339 18.842 6 18.188 6 17.7 L 6 16.853 C 6 16.366 6.448 15.97 7 15.97 L 13 15.97 C 14.104 15.97 15 15.179 15 14.205 L 15 14.205 C 15 13.231 14.104 12.44 13 12.44 L 4 12.44 C 2.896 12.44 2 13.231 2 14.205 L 2 18.654 C 2 19.628 2.687 20.926 3.534 21.551 L 20.165 33.828 C 22.281 35.391 25.719 35.391 27.835 33.828 L 44.466 21.551 C 45.313 20.926 46 19.628 46 18.654 L 46 14.205 C 46 13.231 45.104 12.44 44 12.44 L 35 12.44 C 33.896 12.44 33 13.256 33 14.262 L 33 14.262 C 33 15.267 33.896 16.071 35 16.055 L 35 16.055 L 35 16.055 Z  M 25.116 21.239 L 25.116 21.239 C 25.116 21.855 25.615 22.355 26.231 22.355 L 26.231 22.355 C 26.847 22.355 27.347 21.855 27.347 21.239 L 27.347 21.239 L 27.347 20.29 L 27.347 20.29 C 27.347 19.674 26.847 19.174 26.231 19.174 L 26.231 19.174 C 25.615 19.174 25.116 19.674 25.116 20.29 L 25.116 20.29 L 25.116 21.239 L 25.116 21.239 Z  M 25.116 16.084 L 25.116 16.084 C 25.116 16.699 25.615 17.199 26.231 17.199 L 26.231 17.199 C 26.847 17.199 27.347 16.699 27.347 16.084 L 27.347 16.084 L 27.347 11.249 L 31.155 11.249 C 33.207 11.249 33.773 9.998 32.417 8.457 L 26.456 1.681 C 25.101 0.14 22.899 0.14 21.544 1.681 L 15.583 8.457 C 14.227 9.998 14.793 11.249 16.845 11.249 L 20.653 11.249 L 20.653 21.239 L 20.653 21.239 C 20.653 21.855 21.153 22.355 21.769 22.355 L 21.769 22.355 C 22.385 22.355 22.884 21.855 22.884 21.239 L 22.884 21.239 L 22.884 9.018 L 19.255 9.018 C 18.845 9.018 18.717 8.756 18.971 8.434 L 23.54 2.627 C 23.794 2.304 24.206 2.304 24.46 2.627 L 29.029 8.434 C 29.283 8.756 29.155 9.018 28.745 9.018 L 25.116 9.018 L 25.116 16.084 Z " fill-rule="evenodd" fill="url(#_lgradient_28)"/></svg>
